!!!id: 18xx:2737
!!!COM: Szymanowska, Maria
!!!OTL: Au pied d'un saule
!!!PDT:
!!!SMS-siglum: PL-KOZmzk
!!!SMS-shelfmark: mzk/m/33
!!!NIFC-rismID: 1001082117
!!!URL-scan: https://repozytorium.nifc.pl/islandora/object/pl-kozmzk%3A6878/datastream/PDF/view
!!!ONB-nifc: UWAGA: „Six Romances” M. Szymanowskiej na str. 63-70
!!!SMS-variant:
!!!SMS-altvar:
!!!OMD:Lento ed espressivo
**kern	**kern	**dynam	**kern	**text
*part3	*part2	*part2	*part1	*part1
*staff3	*staff2	*	*staff1	*staff1
*	*I"Pianoforte	*	*I"Chant	*
*clefF4	*clefG2	*	*clefG2	*
*k[]	*k[]	*	*k[]	*
*M4/4	*M4/4	*	*M4/4	*
*met(c)	*met(c)	*	*met(c)	*
16AA/ 16AAA/	16ee/ 16cc/ 16a/ 16e/	.	16r	.
=1	=1	=1	=1	=1
!	!	!LO:DY:rj	!	!
4..AA/ 4..AAA/	4..ee/ 4..cc/ 4..a/ 4..e/	ff	1r	.
16AA/ 16AAA/	16cc/ 16a/ 16e/ 16c/	.	.	.
4..AA/ 4..AAA/	4..cc/ 4..a/ 4..e/ 4..c/	.	.	.
16AA/ 16AAA/	16a/ 16e/ 16c/ 16A/	.	.	.
=2	=2	=2	=2	=2
1AA/ 1AAA/;	1a/ 1e/ 1c/ 1A/;	.	1r;	.
=3	=3	=3	=3	=3
!	!	!LO:DY:rj	!	!
2c\	2e/	p	2ee\	Au
4.A\	4.c/	.	4.cc\	pied
8E\	8B/	.	8b\	d’un
=4	=4	=4	=4	=4
2..F\	2..A/	.	2..a/	saule
8F\	8A/	.	8a/	as-
=5	=5	=5	=5	=5
4.D\	4.B/	.	4.b/	-si-
8D\	8B/	.	8b/	-se
4.D#X^\	4.A/	.	4.a/	tous
8D#\	8A/	.	8a/	les
=6	=6	=6	=6	=6
2E\	2G#<X/	.	2g#X/	jours
!	!LO:TX:b:t=cre_scen_do:ext2=ud:problem:dynamics with extension lines	!LO:HP:b:t=cre_scen_do	!	!
2D\	2G#</ 2E</	<	2r	.
!!LO:LB:g=original
=7	=7	=7	=7	=7
!LO:TX:t=P:problem:poprawione dźwięki	!	!	!	!
2E\ 2C\	2A</	.	2a/	mais
2GG#X\	2B</ 2E</	.	4.b/	sur
.	.	.	8b/	son
=8	=8	=8	=8	=8
2AA\	2c</ 2E</	.	2cc/	coeur
2BB\	2B</ 2E</	[	4.b/	que
.	.	.	8b/	na-
=9	=9	=9	=9	=9
2E\ 2C\	2A#X</	.	(4a#X\	-vroit
.	.	.	4gg\)	.
!	!	!LO:DY:rj	!	!
2c\ 2C\	2ee\ 2a#X\ 2e\	f	4ff#X\	sa
.	.	.	4ee\	bles-
=10	=10	=10	=10	=10
2B\	2ee\ [2b\ [>2f#X^\	.	(4.ff#X\	-su-
.	.	.	8qff#/	.
.	.	.	16ee\LL	.
.	.	.	16dd#X\JJ)	.
4BB/	4dd#X\ 4b\] 4f#\]	.	4dd#\	-re.
4r	4r	.	4r	.
=11	=11	=11	=11	=11
2d#X^\	2cc/ 2a/ 2f#X/	.	2cc^>/	Tê-
2e\	4.b/ 4.g/	.	4.b/	-te
.	8b/ 8g/	.	8b/	bais-
=12	=12	=12	=12	=12
2c#X^\	2b-X/ 2g/ 2e/	.	2b-X^>/	-sée
2dn\	4.a/ 4.f#X/	.	4.a/	en
.	8a/ 8f#/	.	8a/	do-
!!LO:LB:g=original
=13	=13	=13	=13	=13
2B\	2g#X/ 2fn/ 2d/	<	2g#X/	-len-
2A\	4.a/ 4.f/ 4.d/	.	4.a/	-te
.	8a/ 8f/ 8d/	[[	8a/	po-
=14	=14	=14	=14	=14
2G#X\	[<2b/ 2f/ [2d/	.	[2bn/	-stu-
2G#\	2b/] 2e/ 2d/]	.	4b/]	.
.	.	.	4b/	-re
=15	=15	=15	=15	=15
2A\	2cc/ 2e/ 2c/	.	2cc/	on
2C/	2a/ 2e/	.	4b/	l’en-
.	.	.	4a/	-ten-
=16	=16	=16	=16	=16
!	!	!	!LO:TUP:a:problem:klamra łukowa	!
2D/	2b/ 2f/ 2d/	.	6b\	-doit
.	.	.	6cc\	.
.	.	.	6dd\	.
!	!	!	!LO:TUP:a:problem:klamra łukowa	!
2D/	2b/ 2a/ 2f/	.	(6dd\	qui
.	.	.	6ee\)	.
.	.	.	6ff\	pleu-
!!LO:LB:g=original
=17	=17	=17	=17	=17
!LO:TX:t=P:problem:poprawiony dźwięk	!	!	!	!
.	.	.	8qff/	.
2E/	2cc/ 2a/ 2e/	.	2ee^\	-roit
2EE/	2b/ 2g#X/ 2d/	pp	(8ee\L	ses
!	!	!LO:HP:t=e dim.	!	!
.	.	>	8dd\	.
.	.	.	8cc\J)	.
.	.	.	8b\	a-
=18	=18	=18	=18	=18
2AA;/	2a/ 2e/ 2c;/	.	2a;/	-mours.
!LO:N:vis=1	!LO:N:vis=1	!	!LO:N:vis=1	!
2r	2r	.	2r	.
=19	=19	=19	=19	=19
!	!	!LO:DY:rj	!	!
1G/ 1GG/	1b/ 1f/ 1d/ 1B/	f	2b/	Chan-
.	.	.	4a/	-tez
.	.	.	4b/	le
=20	=20	=20	=20	=20
2.C;</	2.cc/ 2.g/ 2.e/ 2.c;/	.	2..cc;\	saule
4r	4r	.	.	.
.	.	.	8cc#X\	et
=21	=21	=21	=21	=21
!	!LO:TX:a:i:t=dolce	!	!	!
1G/: 1D/: 1BB/: 1GG/:	1dd/: 1b/: 1g/: 1d/:	.	2dd\	sa
.	.	.	(8gg\L	dou-
.	.	.	8ff\J)	.
.	.	.	8ee\	-ce
.	.	.	8dd\	ver-
!!LO:PB:g=original
=22	=22	=22	=22	=22
2.c\: 2.G\: 2.E\: 2.C:\	2.ee\: 2.cc\: 2.g\: 2.e:\	.	2dd#X\	-du-
.	.	.	4ee\	-re
4r;	4r;	.	4r;	.
=23	=23	=23	=23	=23
1G#X/ 1GG#X/	1dd/ 1b/ 1e/	rf	(4ee\	chan-
.	.	.	8qqgg/	.
.	.	.	4ff\)	.
.	.	.	4ee\	-tez
.	.	.	4dd\	le
=24	=24	=24	=24	=24
4A\ 4AA\	4r	.	(4dd^\	saule
4r	4cc/ 4a/ 4e/	.	4cc\)	.
4D/ 4DD/	4r	.	(4cc^\	et
4r	4b-X/ 4f/ 4d/	.	4b-X\)	.
=25	=25	=25	=25	=25
!	!LO:TX:t=per_den_dosi:dur=4q:ext2=ud:problem:text with extension lines	!	!	!
4E\	4r	.	2a/	sa
4r	4a/ 4e/ 4c/	.	.	.
4EE/	4r	.	(8cc/L	dou-
.	.	.	8bn/J)	.
4r	4g#X/ 4d/ 4B/	.	8a/	-ce
.	.	.	8g#X/	ver-
=26	=26	=26	=26	=26
2.AA;/	2.a/ 2.e/ 2.c/ 2.A;/	.	2a;/	-du-
.	.	.	8qqcc/L	.
.	.	.	8qqb/J	.
.	.	.	4a/	-re.
8.r;	8.r;	.	8.r;	.
==	==	==	==	==
*-	*-	*-	*-	*-
!!!system-decoration: (s1){(s2,s3)}
!!!ENC: Katarzyna Serwa
!!!END: 2021-07-27
!!!RDF**kern: > = above
!!!RDF**kern: < = below
!!!EED: Andrzej Borzym
!!!EST: 2021-08-08
